T: Pinch Of Snuff, The
M: 4/4
L: 1/8
K: Dmaj
|: ADFD EFGB | A^GAB =cBcd | eA (3Bcd efge |1 fage d3 B :|2 ~f3 d fafd ||
|: ~f2 df efge | ~f2 df agfg | eA (3Bcd efge |1 ~f2 df afdf :|2 afge d3 |]
